X:1
L:1/8
Q:1/8=120
M:9/8
K:D
""D"" FDF FDF""G"" G2 E |""D"" FDF FDF""A"" E2 D |""D"" FDF FDF""G"" G2 B |""D"" AFD DEF""A"" E2 D :: 
""Bm"" B3 BAG""A"" FGA |""G"" B2 E E2 F GFE |""D"" ABc dcB""A"" ABc |""D"" d2 D DEF E2 D ::""D"" f3 fed""G"" g2 e | 
""D"" f3 fed""A"" e2 d |""D"" f3 fed""G"" g2 b |""D"" afd def""A"" e2 d ::""Bm"" gfe dcB""A"" AGA | 
""G"" B2 E E2 F G2 B |""D"" ABc dcB""A"" ABc |""D"" d2 D DEF E2 D :|
